images/50206935.svg

<?xml version="1.0" encoding="UTF-8"?>
<svg xmlns="http://www.w3.org/2000/svg" xmlns:xlink="http://www.w3.org/1999/xlink" width="300pt" height="300pt" viewBox="0 0 300 300" version="1.1">
<defs>
<g>
<symbol overflow="visible" id="glyph0-0">
<path style="stroke:none;" d="M 0.453125 1.59375 L 0.453125 -6.34375 L 4.953125 -6.34375 L 4.953125 1.59375 Z M 0.953125 1.09375 L 4.453125 1.09375 L 4.453125 -5.84375 L 0.953125 -5.84375 Z M 0.953125 1.09375 "/>
</symbol>
<symbol overflow="visible" id="glyph0-1">
<path style="stroke:none;" d="M 3.546875 -5.953125 C 2.898438 -5.953125 2.382812 -5.710938 2 -5.234375 C 1.625 -4.753906 1.4375 -4.101562 1.4375 -3.28125 C 1.4375 -2.445312 1.625 -1.789062 2 -1.3125 C 2.382812 -0.832031 2.898438 -0.59375 3.546875 -0.59375 C 4.191406 -0.59375 4.703125 -0.832031 5.078125 -1.3125 C 5.453125 -1.789062 5.640625 -2.445312 5.640625 -3.28125 C 5.640625 -4.101562 5.453125 -4.753906 5.078125 -5.234375 C 4.703125 -5.710938 4.191406 -5.953125 3.546875 -5.953125 Z M 3.546875 -6.6875 C 4.460938 -6.6875 5.195312 -6.375 5.75 -5.75 C 6.300781 -5.132812 6.578125 -4.3125 6.578125 -3.28125 C 6.578125 -2.238281 6.300781 -1.410156 5.75 -0.796875 C 5.195312 -0.179688 4.460938 0.125 3.546875 0.125 C 2.617188 0.125 1.878906 -0.179688 1.328125 -0.796875 C 0.773438 -1.410156 0.5 -2.238281 0.5 -3.28125 C 0.5 -4.3125 0.773438 -5.132812 1.328125 -5.75 C 1.878906 -6.375 2.617188 -6.6875 3.546875 -6.6875 Z M 3.546875 -6.6875 "/>
</symbol>
<symbol overflow="visible" id="glyph0-2">
<path style="stroke:none;" d="M 0.890625 -6.5625 L 2.078125 -6.5625 L 4.984375 -1.078125 L 4.984375 -6.5625 L 5.84375 -6.5625 L 5.84375 0 L 4.65625 0 L 1.75 -5.484375 L 1.75 0 L 0.890625 0 Z M 0.890625 -6.5625 "/>
</symbol>
<symbol overflow="visible" id="glyph0-3">
<path style="stroke:none;" d="M 0.890625 -6.5625 L 1.765625 -6.5625 L 1.765625 -3.875 L 5 -3.875 L 5 -6.5625 L 5.890625 -6.5625 L 5.890625 0 L 5 0 L 5 -3.125 L 1.765625 -3.125 L 1.765625 0 L 0.890625 0 Z M 0.890625 -6.5625 "/>
</symbol>
</g>
</defs>
<g id="surface25677">
<rect x="0" y="0" width="300" height="300" style="fill:rgb(100%,100%,100%);fill-opacity:1;stroke:none;"/>
<path style="fill:none;stroke-width:1.2;stroke-linecap:butt;stroke-linejoin:miter;stroke:rgb(100%,0%,0%);stroke-opacity:1;stroke-miterlimit:10;" d="M 63.148438 148.65625 L 67.050781 156.636719 "/>
<path style="fill:none;stroke-width:1.2;stroke-linecap:butt;stroke-linejoin:miter;stroke:rgb(0%,0%,0%);stroke-opacity:1;stroke-miterlimit:10;" d="M 67.050781 156.636719 L 70.949219 164.621094 "/>
<path style="fill:none;stroke-width:1.2;stroke-linecap:butt;stroke-linejoin:miter;stroke:rgb(100%,0%,0%);stroke-opacity:1;stroke-miterlimit:10;" d="M 66.90625 146.820312 L 70.804688 154.800781 "/>
<path style="fill:none;stroke-width:1.2;stroke-linecap:butt;stroke-linejoin:miter;stroke:rgb(0%,0%,0%);stroke-opacity:1;stroke-miterlimit:10;" d="M 70.804688 154.800781 L 74.707031 162.785156 "/>
<path style=" stroke:none;fill-rule:nonzero;fill:rgb(100%,100%,100%);fill-opacity:1;" d="M 57.027344 142.238281 L 65.027344 142.238281 L 65.027344 153.238281 L 57.027344 153.238281 Z M 57.027344 142.238281 "/>
<g style="fill:rgb(100%,0%,0%);fill-opacity:1;">
  <use xlink:href="#glyph0-1" x="57.027344" y="150.901367"/>
</g>
<path style="fill:none;stroke-width:1.2;stroke-linecap:butt;stroke-linejoin:miter;stroke:rgb(0%,0%,0%);stroke-opacity:1;stroke-miterlimit:10;" d="M 72.828125 163.703125 L 81.691406 164.316406 "/>
<path style="fill:none;stroke-width:1.2;stroke-linecap:butt;stroke-linejoin:miter;stroke:rgb(0%,0%,100%);stroke-opacity:1;stroke-miterlimit:10;" d="M 81.691406 164.316406 L 90.550781 164.929688 "/>
<path style="fill:none;stroke-width:1.2;stroke-linecap:butt;stroke-linejoin:miter;stroke:rgb(0%,0%,0%);stroke-opacity:1;stroke-miterlimit:10;" d="M 72.828125 163.703125 L 62.902344 178.4375 "/>
<path style="fill:none;stroke-width:1.2;stroke-linecap:butt;stroke-linejoin:miter;stroke:rgb(0%,0%,100%);stroke-opacity:1;stroke-miterlimit:10;" d="M 90.550781 164.929688 L 95.515625 157.5625 "/>
<path style="fill:none;stroke-width:1.2;stroke-linecap:butt;stroke-linejoin:miter;stroke:rgb(0%,0%,0%);stroke-opacity:1;stroke-miterlimit:10;" d="M 95.515625 157.5625 L 100.476562 150.195312 "/>
<path style=" stroke:none;fill-rule:nonzero;fill:rgb(100%,100%,100%);fill-opacity:1;" d="M 83.550781 159.429688 L 97.550781 159.429688 L 97.550781 170.429688 L 83.550781 170.429688 Z M 83.550781 159.429688 "/>
<g style="fill:rgb(0%,0%,100%);fill-opacity:1;">
  <use xlink:href="#glyph0-2" x="83.550781" y="168.092773"/>
  <use xlink:href="#glyph0-3" x="90.52832" y="168.092773"/>
</g>
<path style="fill:none;stroke-width:1.2;stroke-linecap:butt;stroke-linejoin:miter;stroke:rgb(0%,0%,0%);stroke-opacity:1;stroke-miterlimit:10;" d="M 100.476562 150.195312 L 92.679688 134.230469 "/>
<path style="fill:none;stroke-width:1.2;stroke-linecap:butt;stroke-linejoin:miter;stroke:rgb(0%,0%,0%);stroke-opacity:1;stroke-miterlimit:10;" d="M 103.453125 146.761719 L 97.214844 133.992188 "/>
<path style="fill:none;stroke-width:1.2;stroke-linecap:butt;stroke-linejoin:miter;stroke:rgb(0%,0%,0%);stroke-opacity:1;stroke-miterlimit:10;" d="M 118.203125 151.421875 L 100.476562 150.195312 "/>
<path style="fill:none;stroke-width:1.2;stroke-linecap:butt;stroke-linejoin:miter;stroke:rgb(0%,0%,0%);stroke-opacity:1;stroke-miterlimit:10;" d="M 92.679688 134.230469 L 102.605469 119.496094 "/>
<path style="fill:none;stroke-width:1.2;stroke-linecap:butt;stroke-linejoin:miter;stroke:rgb(0%,0%,0%);stroke-opacity:1;stroke-miterlimit:10;" d="M 102.605469 119.496094 L 120.332031 120.722656 "/>
<path style="fill:none;stroke-width:1.2;stroke-linecap:butt;stroke-linejoin:miter;stroke:rgb(0%,0%,0%);stroke-opacity:1;stroke-miterlimit:10;" d="M 104.089844 123.789062 L 118.269531 124.769531 "/>
<path style="fill:none;stroke-width:1.2;stroke-linecap:butt;stroke-linejoin:miter;stroke:rgb(0%,0%,0%);stroke-opacity:1;stroke-miterlimit:10;" d="M 120.332031 120.722656 L 128.128906 136.6875 "/>
<path style="fill:none;stroke-width:1.2;stroke-linecap:butt;stroke-linejoin:miter;stroke:rgb(0%,0%,0%);stroke-opacity:1;stroke-miterlimit:10;" d="M 120.332031 120.722656 L 130.257812 105.988281 "/>
<path style="fill:none;stroke-width:1.2;stroke-linecap:butt;stroke-linejoin:miter;stroke:rgb(0%,0%,0%);stroke-opacity:1;stroke-miterlimit:10;" d="M 128.128906 136.6875 L 118.203125 151.421875 "/>
<path style="fill:none;stroke-width:1.2;stroke-linecap:butt;stroke-linejoin:miter;stroke:rgb(0%,0%,0%);stroke-opacity:1;stroke-miterlimit:10;" d="M 123.667969 135.824219 L 115.726562 147.613281 "/>
<path style="fill:none;stroke-width:1.2;stroke-linecap:butt;stroke-linejoin:miter;stroke:rgb(0%,0%,0%);stroke-opacity:1;stroke-miterlimit:10;" d="M 130.257812 105.988281 L 147.980469 107.214844 "/>
<path style="fill:none;stroke-width:1.2;stroke-linecap:butt;stroke-linejoin:miter;stroke:rgb(0%,0%,0%);stroke-opacity:1;stroke-miterlimit:10;" d="M 147.980469 107.214844 L 155.78125 123.179688 "/>
<path style="fill:none;stroke-width:1.2;stroke-linecap:butt;stroke-linejoin:miter;stroke:rgb(0%,0%,0%);stroke-opacity:1;stroke-miterlimit:10;" d="M 152.515625 106.976562 L 158.757812 119.746094 "/>
<path style="fill:none;stroke-width:1.2;stroke-linecap:butt;stroke-linejoin:miter;stroke:rgb(0%,0%,0%);stroke-opacity:1;stroke-miterlimit:10;" d="M 157.90625 92.480469 L 147.980469 107.214844 "/>
<path style="fill:none;stroke-width:1.2;stroke-linecap:butt;stroke-linejoin:miter;stroke:rgb(0%,0%,0%);stroke-opacity:1;stroke-miterlimit:10;" d="M 155.78125 123.179688 L 173.503906 124.40625 "/>
<path style="fill:none;stroke-width:1.2;stroke-linecap:butt;stroke-linejoin:miter;stroke:rgb(0%,0%,0%);stroke-opacity:1;stroke-miterlimit:10;" d="M 173.503906 124.40625 L 183.429688 109.671875 "/>
<path style="fill:none;stroke-width:1.2;stroke-linecap:butt;stroke-linejoin:miter;stroke:rgb(0%,0%,0%);stroke-opacity:1;stroke-miterlimit:10;" d="M 171.03125 120.597656 L 178.972656 108.808594 "/>
<path style="fill:none;stroke-width:1.2;stroke-linecap:butt;stroke-linejoin:miter;stroke:rgb(0%,0%,0%);stroke-opacity:1;stroke-miterlimit:10;" d="M 183.429688 109.671875 L 192.292969 110.285156 "/>
<path style="fill:none;stroke-width:1.2;stroke-linecap:butt;stroke-linejoin:miter;stroke:rgb(0%,0%,100%);stroke-opacity:1;stroke-miterlimit:10;" d="M 192.292969 110.285156 L 201.15625 110.898438 "/>
<path style="fill:none;stroke-width:1.2;stroke-linecap:butt;stroke-linejoin:miter;stroke:rgb(0%,0%,0%);stroke-opacity:1;stroke-miterlimit:10;" d="M 183.429688 109.671875 L 175.632812 93.707031 "/>
<path style="fill:none;stroke-width:1.2;stroke-linecap:butt;stroke-linejoin:miter;stroke:rgb(0%,0%,100%);stroke-opacity:1;stroke-miterlimit:10;" d="M 201.15625 110.898438 L 205.054688 118.882812 "/>
<path style="fill:none;stroke-width:1.2;stroke-linecap:butt;stroke-linejoin:miter;stroke:rgb(0%,0%,0%);stroke-opacity:1;stroke-miterlimit:10;" d="M 205.054688 118.882812 L 208.953125 126.863281 "/>
<path style=" stroke:none;fill-rule:nonzero;fill:rgb(100%,100%,100%);fill-opacity:1;" d="M 194.15625 105.398438 L 208.15625 105.398438 L 208.15625 116.398438 L 194.15625 116.398438 Z M 194.15625 105.398438 "/>
<g style="fill:rgb(0%,0%,100%);fill-opacity:1;">
  <use xlink:href="#glyph0-2" x="194.15625" y="114.061523"/>
  <use xlink:href="#glyph0-3" x="201.133789" y="114.061523"/>
</g>
<path style="fill:none;stroke-width:1.2;stroke-linecap:butt;stroke-linejoin:miter;stroke:rgb(0%,0%,0%);stroke-opacity:1;stroke-miterlimit:10;" d="M 207.21875 125.695312 L 202.257812 133.0625 "/>
<path style="fill:none;stroke-width:1.2;stroke-linecap:butt;stroke-linejoin:miter;stroke:rgb(100%,0%,0%);stroke-opacity:1;stroke-miterlimit:10;" d="M 202.257812 133.0625 L 197.292969 140.433594 "/>
<path style="fill:none;stroke-width:1.2;stroke-linecap:butt;stroke-linejoin:miter;stroke:rgb(0%,0%,0%);stroke-opacity:1;stroke-miterlimit:10;" d="M 210.6875 128.03125 L 205.726562 135.398438 "/>
<path style="fill:none;stroke-width:1.2;stroke-linecap:butt;stroke-linejoin:miter;stroke:rgb(100%,0%,0%);stroke-opacity:1;stroke-miterlimit:10;" d="M 205.726562 135.398438 L 200.761719 142.769531 "/>
<path style="fill:none;stroke-width:1.2;stroke-linecap:butt;stroke-linejoin:miter;stroke:rgb(0%,0%,0%);stroke-opacity:1;stroke-miterlimit:10;" d="M 208.953125 126.863281 L 217.816406 127.476562 "/>
<path style="fill:none;stroke-width:1.2;stroke-linecap:butt;stroke-linejoin:miter;stroke:rgb(0%,0%,100%);stroke-opacity:1;stroke-miterlimit:10;" d="M 217.816406 127.476562 L 226.679688 128.09375 "/>
<path style=" stroke:none;fill-rule:nonzero;fill:rgb(100%,100%,100%);fill-opacity:1;" d="M 191.027344 136.101562 L 199.027344 136.101562 L 199.027344 147.101562 L 191.027344 147.101562 Z M 191.027344 136.101562 "/>
<g style="fill:rgb(100%,0%,0%);fill-opacity:1;">
  <use xlink:href="#glyph0-1" x="191.027344" y="144.764648"/>
</g>
<path style="fill:none;stroke-width:1.2;stroke-linecap:butt;stroke-linejoin:miter;stroke:rgb(0%,0%,100%);stroke-opacity:1;stroke-miterlimit:10;" d="M 226.679688 128.09375 L 230.578125 136.074219 "/>
<path style="fill:none;stroke-width:1.2;stroke-linecap:butt;stroke-linejoin:miter;stroke:rgb(0%,0%,0%);stroke-opacity:1;stroke-miterlimit:10;" d="M 230.578125 136.074219 L 234.476562 144.058594 "/>
<path style=" stroke:none;fill-rule:nonzero;fill:rgb(100%,100%,100%);fill-opacity:1;" d="M 219.679688 122.59375 L 233.679688 122.59375 L 233.679688 133.59375 L 219.679688 133.59375 Z M 219.679688 122.59375 "/>
<g style="fill:rgb(0%,0%,100%);fill-opacity:1;">
  <use xlink:href="#glyph0-2" x="219.679688" y="131.256836"/>
  <use xlink:href="#glyph0-3" x="226.657227" y="131.256836"/>
</g>
<path style="fill:none;stroke-width:1.2;stroke-linecap:butt;stroke-linejoin:miter;stroke:rgb(0%,0%,0%);stroke-opacity:1;stroke-miterlimit:10;" d="M 234.476562 144.058594 L 243.226562 145.59375 "/>
<path style="fill:none;stroke-width:1.2;stroke-linecap:butt;stroke-linejoin:miter;stroke:rgb(0%,0%,100%);stroke-opacity:1;stroke-miterlimit:10;" d="M 243.226562 145.59375 L 251.976562 147.132812 "/>
<path style="fill:none;stroke-width:1.2;stroke-linecap:butt;stroke-linejoin:miter;stroke:rgb(0%,0%,0%);stroke-opacity:1;stroke-miterlimit:10;" d="M 226.144531 159.75 L 234.476562 144.058594 "/>
<path style="fill:none;stroke-width:1.2;stroke-linecap:butt;stroke-linejoin:miter;stroke:rgb(0%,0%,0%);stroke-opacity:1;stroke-miterlimit:10;" d="M 230.671875 160.140625 L 237.335938 147.585938 "/>
<path style="fill:none;stroke-width:1.2;stroke-linecap:butt;stroke-linejoin:miter;stroke:rgb(0%,0%,100%);stroke-opacity:1;stroke-miterlimit:10;" d="M 251.976562 147.132812 L 254.460938 164.722656 "/>
<path style="fill:none;stroke-width:1.2;stroke-linecap:butt;stroke-linejoin:miter;stroke:rgb(0%,0%,100%);stroke-opacity:1;stroke-miterlimit:10;" d="M 251.976562 147.132812 L 258.363281 140.957031 "/>
<path style="fill:none;stroke-width:1.2;stroke-linecap:butt;stroke-linejoin:miter;stroke:rgb(0%,0%,0%);stroke-opacity:1;stroke-miterlimit:10;" d="M 258.363281 140.957031 L 264.75 134.78125 "/>
<path style=" stroke:none;fill-rule:nonzero;fill:rgb(100%,100%,100%);fill-opacity:1;" d="M 248.976562 141.632812 L 255.976562 141.632812 L 255.976562 152.632812 L 248.976562 152.632812 Z M 248.976562 141.632812 "/>
<g style="fill:rgb(0%,0%,100%);fill-opacity:1;">
  <use xlink:href="#glyph0-2" x="248.976562" y="150.295898"/>
</g>
<path style="fill:none;stroke-width:1.2;stroke-linecap:butt;stroke-linejoin:miter;stroke:rgb(0%,0%,100%);stroke-opacity:1;stroke-miterlimit:10;" d="M 254.460938 164.722656 L 246.480469 168.625 "/>
<path style="fill:none;stroke-width:1.2;stroke-linecap:butt;stroke-linejoin:miter;stroke:rgb(0%,0%,0%);stroke-opacity:1;stroke-miterlimit:10;" d="M 246.480469 168.625 L 238.496094 172.523438 "/>
<path style="fill:none;stroke-width:1.2;stroke-linecap:butt;stroke-linejoin:miter;stroke:rgb(0%,0%,100%);stroke-opacity:1;stroke-miterlimit:10;" d="M 251.03125 161.746094 L 244.644531 164.867188 "/>
<path style="fill:none;stroke-width:1.2;stroke-linecap:butt;stroke-linejoin:miter;stroke:rgb(0%,0%,0%);stroke-opacity:1;stroke-miterlimit:10;" d="M 244.644531 164.867188 L 238.257812 167.984375 "/>
<path style=" stroke:none;fill-rule:nonzero;fill:rgb(100%,100%,100%);fill-opacity:1;" d="M 251.460938 159.222656 L 258.460938 159.222656 L 258.460938 170.222656 L 251.460938 170.222656 Z M 251.460938 159.222656 "/>
<g style="fill:rgb(0%,0%,100%);fill-opacity:1;">
  <use xlink:href="#glyph0-2" x="251.460938" y="167.885742"/>
</g>
<path style="fill:none;stroke-width:1.2;stroke-linecap:butt;stroke-linejoin:miter;stroke:rgb(0%,0%,0%);stroke-opacity:1;stroke-miterlimit:10;" d="M 238.496094 172.523438 L 226.144531 159.75 "/>
<path style="fill:none;stroke-width:1.2;stroke-linecap:butt;stroke-linejoin:miter;stroke:rgb(0%,0%,0%);stroke-opacity:1;stroke-miterlimit:10;" d="M 238.496094 172.523438 L 235.421875 190.023438 "/>
<path style="fill:none;stroke-width:1.2;stroke-linecap:butt;stroke-linejoin:miter;stroke:rgb(0%,0%,0%);stroke-opacity:1;stroke-miterlimit:10;" d="M 235.421875 190.023438 L 217.921875 186.949219 "/>
<path style="fill:none;stroke-width:1.2;stroke-linecap:butt;stroke-linejoin:miter;stroke:rgb(0%,0%,0%);stroke-opacity:1;stroke-miterlimit:10;" d="M 235.421875 190.023438 L 252.921875 193.097656 "/>
<path style="fill:none;stroke-width:1.2;stroke-linecap:butt;stroke-linejoin:miter;stroke:rgb(0%,0%,0%);stroke-opacity:1;stroke-miterlimit:10;" d="M 235.421875 190.023438 L 232.347656 207.519531 "/>
<path style="fill:none;stroke-width:1.2;stroke-linecap:butt;stroke-linejoin:miter;stroke:rgb(0%,0%,0%);stroke-opacity:1;stroke-miterlimit:10;" d="M 175.632812 93.707031 L 157.90625 92.480469 "/>
<path style="fill:none;stroke-width:1.2;stroke-linecap:butt;stroke-linejoin:miter;stroke:rgb(0%,0%,0%);stroke-opacity:1;stroke-miterlimit:10;" d="M 173.570312 97.753906 L 159.390625 96.773438 "/>
<path style="fill:none;stroke-width:1.2;stroke-linecap:butt;stroke-linejoin:miter;stroke:rgb(0%,0%,0%);stroke-opacity:1;stroke-miterlimit:10;" d="M 62.902344 178.4375 L 45.175781 177.210938 "/>
<path style="fill:none;stroke-width:1.2;stroke-linecap:butt;stroke-linejoin:miter;stroke:rgb(0%,0%,0%);stroke-opacity:1;stroke-miterlimit:10;" d="M 45.175781 177.210938 L 35.25 191.945312 "/>
<path style="fill:none;stroke-width:1.2;stroke-linecap:butt;stroke-linejoin:miter;stroke:rgb(0%,0%,0%);stroke-opacity:1;stroke-miterlimit:10;" d="M 45.175781 177.210938 L 37.378906 161.246094 "/>
</g>
</svg>

<svg xmlns="http://www.w3.org/2000/svg" xmlns:xlink="http://www.w3.org/1999/xlink" width="300pt" height="300pt" viewBox="0 0 300 300"><defs><symbol overflow="visible"><path d="M.453 1.594v-7.938h4.5v7.938zm.5-.5h3.5v-6.938h-3.5zm0 0"/></symbol><symbol overflow="visible" id="a"><path d="M3.547-5.953c-.65 0-1.164.242-1.547.72-.375.48-.563 1.13-.563 1.952 0 .835.188 1.49.563 1.967.383.48.898.72 1.547.72.644 0 1.156-.24 1.53-.72.376-.476.564-1.132.564-1.968 0-.822-.187-1.474-.562-1.954-.375-.477-.887-.72-1.53-.72zm0-.734c.914 0 1.648.312 2.203.937.55.617.828 1.438.828 2.47 0 1.042-.277 1.87-.828 2.483-.555.617-1.29.922-2.203.922-.93 0-1.668-.305-2.22-.922C.774-1.41.5-2.237.5-3.28c0-1.033.273-1.853.828-2.47.55-.625 1.29-.938 2.22-.938zm0 0"/></symbol><symbol overflow="visible" id="b"><path d="M.89-6.563H2.08l2.906 5.485v-5.484h.86V0H4.656L1.75-5.484V0H.89zm0 0"/></symbol><symbol overflow="visible" id="c"><path d="M.89-6.563h.876v2.688H5v-2.688h.89V0H5v-3.125H1.766V0H.89zm0 0"/></symbol></defs><g><path fill="#fff" d="M0 0h300v300H0z"/><path d="M63.148 148.656l3.903 7.98" stroke-width="1.2" stroke="#f00" stroke-miterlimit="10" fill="none"/><path d="M67.05 156.637l3.9 7.984" stroke-width="1.2" stroke="#000" stroke-miterlimit="10" fill="none"/><path d="M66.906 146.82l3.9 7.98" stroke-width="1.2" stroke="#f00" stroke-miterlimit="10" fill="none"/><path d="M70.805 154.8l3.902 7.985" stroke-width="1.2" stroke="#000" stroke-miterlimit="10" fill="none"/><path d="M57.027 142.238h8v11h-8zm0 0" fill="#fff"/><use xlink:href="#a" x="57.027" y="150.901" fill="#f00"/><path d="M72.828 163.703l8.863.613" stroke-width="1.2" stroke="#000" stroke-miterlimit="10" fill="none"/><path d="M81.69 164.316l8.86.614" stroke-width="1.2" stroke="#00f" stroke-miterlimit="10" fill="none"/><path d="M72.828 163.703l-9.926 14.734" stroke-width="1.2" stroke="#000" stroke-miterlimit="10" fill="none"/><path d="M90.55 164.93l4.966-7.368" stroke-width="1.2" stroke="#00f" stroke-miterlimit="10" fill="none"/><path d="M95.516 157.563l4.96-7.368" stroke-width="1.2" stroke="#000" stroke-miterlimit="10" fill="none"/><path d="M83.55 159.43h14v11h-14zm0 0" fill="#fff"/><g fill="#00f"><use xlink:href="#b" x="83.551" y="168.093"/><use xlink:href="#c" x="90.528" y="168.093"/></g><path d="M100.477 150.195L92.68 134.23M103.453 146.762l-6.238-12.77M118.203 151.422l-17.726-1.227M92.68 134.23l9.925-14.734M102.605 119.496l17.727 1.227M104.09 123.79l14.18.98M120.332 120.723l7.797 15.965M120.332 120.723l9.926-14.735M128.13 136.688l-9.927 14.734M123.668 135.824l-7.94 11.79M130.258 105.988l17.722 1.227M147.98 107.215l7.8 15.965M152.516 106.977l6.242 12.77M157.906 92.48l-9.926 14.735M155.78 123.18l17.724 1.226M173.504 124.406l9.926-14.734M171.03 120.598l7.943-11.79M183.43 109.672l8.863.613" stroke-width="1.2" stroke="#000" stroke-miterlimit="10" fill="none"/><path d="M192.293 110.285l8.863.613" stroke-width="1.2" stroke="#00f" stroke-miterlimit="10" fill="none"/><path d="M183.43 109.672l-7.797-15.965" stroke-width="1.2" stroke="#000" stroke-miterlimit="10" fill="none"/><path d="M201.156 110.898l3.9 7.985" stroke-width="1.2" stroke="#00f" stroke-miterlimit="10" fill="none"/><path d="M205.055 118.883l3.898 7.98" stroke-width="1.2" stroke="#000" stroke-miterlimit="10" fill="none"/><path d="M194.156 105.398h14v11h-14zm0 0" fill="#fff"/><g fill="#00f"><use xlink:href="#b" x="194.156" y="114.062"/><use xlink:href="#c" x="201.134" y="114.062"/></g><path d="M207.22 125.695l-4.962 7.368" stroke-width="1.2" stroke="#000" stroke-miterlimit="10" fill="none"/><path d="M202.258 133.063l-4.965 7.37" stroke-width="1.2" stroke="#f00" stroke-miterlimit="10" fill="none"/><path d="M210.688 128.03l-4.96 7.368" stroke-width="1.2" stroke="#000" stroke-miterlimit="10" fill="none"/><path d="M205.727 135.398l-4.965 7.372" stroke-width="1.2" stroke="#f00" stroke-miterlimit="10" fill="none"/><path d="M208.953 126.863l8.863.614" stroke-width="1.2" stroke="#000" stroke-miterlimit="10" fill="none"/><path d="M217.816 127.477l8.864.617" stroke-width="1.2" stroke="#00f" stroke-miterlimit="10" fill="none"/><path d="M191.027 136.102h8v11h-8zm0 0" fill="#fff"/><use xlink:href="#a" x="191.027" y="144.765" fill="#f00"/><path d="M226.68 128.094l3.898 7.98" stroke-width="1.2" stroke="#00f" stroke-miterlimit="10" fill="none"/><path d="M230.578 136.074l3.9 7.985" stroke-width="1.2" stroke="#000" stroke-miterlimit="10" fill="none"/><path d="M219.68 122.594h14v11h-14zm0 0" fill="#fff"/><g fill="#00f"><use xlink:href="#b" x="219.68" y="131.257"/><use xlink:href="#c" x="226.657" y="131.257"/></g><path d="M234.477 144.06l8.75 1.534" stroke-width="1.2" stroke="#000" stroke-miterlimit="10" fill="none"/><path d="M243.227 145.594l8.75 1.54" stroke-width="1.2" stroke="#00f" stroke-miterlimit="10" fill="none"/><path d="M226.145 159.75l8.332-15.69M230.672 160.14l6.664-12.554" stroke-width="1.2" stroke="#000" stroke-miterlimit="10" fill="none"/><path d="M251.977 147.133l2.484 17.59M251.977 147.133l6.386-6.176" stroke-width="1.2" stroke="#00f" stroke-miterlimit="10" fill="none"/><path d="M258.363 140.957l6.387-6.176" stroke-width="1.2" stroke="#000" stroke-miterlimit="10" fill="none"/><path d="M248.977 141.633h7v11h-7zm0 0" fill="#fff"/><use xlink:href="#b" x="248.977" y="150.296" fill="#00f"/><path d="M254.46 164.723l-7.98 3.902" stroke-width="1.2" stroke="#00f" stroke-miterlimit="10" fill="none"/><path d="M246.48 168.625l-7.984 3.898" stroke-width="1.2" stroke="#000" stroke-miterlimit="10" fill="none"/><path d="M251.03 161.746l-6.385 3.12" stroke-width="1.2" stroke="#00f" stroke-miterlimit="10" fill="none"/><path d="M244.645 164.867l-6.387 3.117" stroke-width="1.2" stroke="#000" stroke-miterlimit="10" fill="none"/><path d="M251.46 159.223h7v11h-7zm0 0" fill="#fff"/><use xlink:href="#b" x="251.461" y="167.886" fill="#00f"/><path d="M238.496 172.523l-12.35-12.773M238.496 172.523l-3.074 17.5M235.422 190.023l-17.5-3.074M235.422 190.023l17.5 3.075M235.422 190.023l-3.074 17.497M175.633 93.707l-17.727-1.227M173.57 97.754l-14.18-.98M62.902 178.438l-17.726-1.227M45.176 177.21l-9.926 14.735M45.176 177.21l-7.797-15.964" stroke-width="1.2" stroke="#000" stroke-miterlimit="10" fill="none"/></g></svg>
